X: 639
T: Xiaoguafu shangfen
%%abc-version 2.0
%%abcx-abcm2ps-target-version 5.9.1 (29 Sep 2008)
%%abc-creator hum2abc beta
%%abcx-conversion-date 2013/10/02 07:52:30
%%abc-edited-by Helmut Schaffrath
%%humdrum-veritas 2482145566
%%humdrum-veritas-data 4148212724
%%continueall 1
%%barnumbers 0
L: 1/8
M: 2/4
K: F
c2B G [I:setbarnb 1]| 
c4 | 
f2g f | 
d cB2 | 
c> d f d | 
c3B | 
G A G F | 
D4 | 
D F D F | 
G4 | 
D F D F | 
G4 | 
c4 | 
f2d c | 
B2c A | 
G A/ G/ F G | 
B3c | 
G F E D | 
F G F D | 
C3D | 
C4 |]  



